!!!!SEGMENT: pl-wtm--r-2582_hertz-michal--marsz-a-dur.krn
!!!cenid: 18xx:3126
!!!COM: Hertz, Michał
!!!COM-rismid: pe41023359
!!!CDT: 1844/09/28-~1918
!!!CNT: Polish
!!!OTL: Marsz A-dur
!!!PDT:
!!!AGN:
!!!SMS-siglum: PL-Wtm
!!!SMS-shelfmark: R 2582
!!!SMS-shelfwork: W
!!!SMS-variant:
!!!SMS-altvar:
!!!NIFC-rismid: 1001082455
!!!URL-scan: http://repozytorium.nifc.pl/skany/pl-wtm-nut--r2582
!!!ONB-nifc:
**kern	**kern	**dynam
*part1	*part1	*part1
*staff2	*staff1	*
*Ipiano	*Iempty	*
*I"Piano	*	*
*clefF4	*clefG2	*
*k[f#c#g#]	*k[f#c#g#]	*
*A:	*A:	*
*M2/2	*M2/2	*
*met(c|)	*met(c|)	*
=1	=1	=1
!!!OMD:allegro.
*2\right	*2\right	*
2.A 2.AA\	(>4cc# 4e\	ff
.	8bL 8d\	.
.	8cc#J 8e\)	.
.	4a 4c#\	.
4c# 4C#\	4e/	.
=2	=2	=2
*	*^	*
4d 4D\	4f#/	4f#\	.
4c# 4C#\	4e/	4e\	.
4d 4D\	4f#/	4f#\	.
4B 4BB\	4g#/	4d\	.
=3	=3	=3	=3
2c# 2C#\	(>4a/	2e\	.
.	8g#/L	.	.
.	8a/J)	.	.
4B 4GG#\	4dd\	4e\	.
4A 4AA\	4cc#\	4e\	.
=4	=4	=4	=4
(>4A 4E\	(>4cc#\	4e\	.
4G# 4E\)	4b\)	4e\	.
*	*v	*v	*
4r	4r	.
8F#\L	8f#/L	.
8F#\J	8f#/J	.
=5	=5	=5
2.B 2.BB\	(>4dd 4f#\	.
.	8cc#L 8d\	.
.	8ddJ 8e\)	.
.	4b 4d\	.
4d 4D\	4f#/	.
=6	=6	=6
4c# 4C#\	4g# 4e#X/	.
4f# 4F#\	4a#X 4f#/	.
4d 4D\	4b 4f#/	.
4B 4BB\	4dd 4f#\	.
!!LO:LB:g=original
=7	=7	=7
2.E\	(>4cc# 4e\	.
.	8bL 8d\	.
.	8aJ 8c#\)	.
.	4b 4d\	.
4E 4EE\	4cc# 4e\	.
=8	=8	=8
(>2E (<2EE\	(>2b (<2d\	.
4A 4AA\))	4a 4c#\))	.
4r	4r	.
=9	=9	=9
4e 4E\	4b 4g#\	.
8E\L	8e/L	.
8E\J	8e/J	.
2E\	2e/	.
=10	=10	=10
4e 4A\	4cc# 4a\	.
8c#\L	8a\L	.
8c#\J	8a\J	.
2c#\	2a/	.
=11	=11	=11
4e 4E\	4b 4g#\	.
8E\L	8e/L	.
8E\J	8e/J	.
4E\	4e/	.
4e 4E\	4ee 4g#\	.
=12	=12	=12
4e 4c# 4A\	4cc# 4a\	.
4e 4d\	4b 4g#\	.
4e 4c#\	4a/	.
4e 4c# 4A\	4cc# 4a\	.
!!LO:LB:g=original
=13	=13	=13
4e 4E\	4b 4g#\	.
8E\L	8e/L	.
8E\J	8e/J	.
2E\	2e/	.
=14	=14	=14
4e 4A\	4cc# 4a\	.
8c#\L	8a/L	.
8c#\J	8a/J	.
2c#\	2a/	.
=15	=15	=15
4e 4E\	4b 4g#\	.
8E\L	8e/L	.
8E\J	8e/J	.
4E\	4e/	.
4B 4E\	4g# 4e 4d/	.
=16	=16	=16
2A 2AA\	2a 2e 2c#/	.
2r	2ra	.
==	==	==
*-	*-	*-
!!!system-decoration: {(s1,s2)}
!!!RDF**kern: > = above
!!!RDF**kern: < = below
!!!ENC:Berenika Jozajtis
!!!END:2021-11-03
!!!EED: Antoni Szymański
!!!EST: 2021-11-05
